packages/Snappmarket/src/CellphoneIcon/index.svg

<svg
  style="width:15px;height:15px"
  version="1.1"
  xmlns="http://www.w3.org/2000/svg"
  width="32"
  height="32"
  viewBox="0 0 32 32"
  id="CellphoneIcon"
>
  <title>cellphone</title>
  <path d="M24.3 0c1.564 0 2.834 1.27 2.834 2.834v26.077c0 1.564-1.27 2.834-2.834 2.834h-16.894c-1.565 0-2.834-1.269-2.834-2.834v-26.077c0-1.564 1.27-2.834 2.834-2.834zM6.771 28.917c0 0.35 0.284 0.635 0.635 0.635h16.894c0.356 0 0.64-0.284 0.64-0.635v-3.693h-18.169zM6.771 23.030h18.169v-17.27h-18.169zM7.406 2.199c-0.35 0-0.635 0.284-0.635 0.63v0.736h18.169v-0.731c0-0.356-0.284-0.635-0.64-0.635zM15.853 28.658c0.703 0 1.272-0.57 1.272-1.272s-0.57-1.272-1.272-1.272v0c-0.703 0-1.272 0.57-1.272 1.272s0.57 1.272 1.272 1.272v0z"/>
</svg>

<svg xmlns="http://www.w3.org/2000/svg" viewBox="0 0 32 32">
  <path d="M24.3 0a2.836 2.836 0 012.834 2.834v26.077a2.836 2.836 0 01-2.834 2.834H7.406a2.834 2.834 0 01-2.834-2.834V2.834A2.836 2.836 0 017.406 0zM6.771 28.917c0 .35.284.635.635.635H24.3c.356 0 .64-.284.64-.635v-3.693H6.771zm0-5.887H24.94V5.76H6.771zm.635-20.831a.634.634 0 00-.635.63v.736H24.94v-.731a.633.633 0 00-.64-.635zm8.447 26.459a1.272 1.272 0 000-2.544 1.272 1.272 0 000 2.544z"/>
</svg>
